svg/curve-sequencer/generate-mode-1.svg

<?xml version="1.0" encoding="UTF-8" standalone="no"?>
<svg xmlns="http://www.w3.org/2000/svg" xmlns:svg="http://www.w3.org/2000/svg" version="1.1" width="9.250mm" height="3.830mm" viewBox="-4.625 -1.915 9.250 3.830">
  <defs/>
  <rect x="-4.500" y="-1.790" width="9.000" height="3.580" fill="#efedeb" stroke="#331a00" stroke-width="0.250" rx="0.500" ry="0.500"/>
  <g style="font-weight:bold;font-size:2.371px;font-family:'Proxima Nova';dominant-baseline:middle;text-anchor:middle;fill:#331a00">
    <path d="m -3.0211357,0.8850485 c 0.360392,0 0.559556,-0.192051 0.673364,-0.38884401 l -0.289262,-0.139889 c -0.066388,0.130405 -0.208648,0.229987 -0.384102,0.229987 -0.275036,0 -0.483684,-0.220503 -0.483684,-0.51924901 0,-0.298746 0.208648,-0.51924901 0.483684,-0.51924901 0.175454,0 0.317714,0.101953 0.384102,0.22998701 l 0.289262,-0.14226001 c -0.111437,-0.196793 -0.312972,-0.38647301 -0.673364,-0.38647301 -0.462345,0 -0.82985,0.33194001 -0.82985,0.81799502 0,0.48605501 0.367505,0.81799502 0.82985,0.81799502 z" style="font-weight:bold;font-size:2.371px;font-family:'Proxima Nova';dominant-baseline:middle;text-anchor:middle;fill:#331a00"/>
    <path d="m -2.1450511,0.22591049 c 0,0.388844 0.225245,0.65913801 0.708929,0.65913801 0.47894201,0 0.70418702,-0.26792301 0.70418702,-0.66150901 V -0.72486053 H -1.0733591 v 0.93891602 c 0,0.220503 -0.120921,0.372247 -0.362763,0.372247 -0.246584,0 -0.367505,-0.151744 -0.367505,-0.372247 v -0.93891602 h -0.341424 z" style="font-weight:bold;font-size:2.371px;font-family:'Proxima Nova';dominant-baseline:middle;text-anchor:middle;fill:#331a00"/>
    <path d="m 0.47612657,0.8565965 h 0.386473 l -0.35565,-0.60223401 c 0.170712,-0.040307 0.346166,-0.18968001 0.346166,-0.46945801 0,-0.29400401 -0.201535,-0.50976501 -0.53110401,-0.50976501 H -0.41774045 V 0.8565965 h 0.336682 V 0.28992749 h 0.24658401 z m 0.033194,-1.07406302 c 0,0.132776 -0.10195301,0.21813200109 -0.23710001,0.21813200109 H -0.08105845 V -0.43559853 h 0.35327901 c 0.135147,0 0.23710001,0.085356 0.23710001,0.21813201 z" style="font-weight:bold;font-size:2.371px;font-family:'Proxima Nova';dominant-baseline:middle;text-anchor:middle;fill:#331a00"/>
    <path d="m 1.5260352,0.8565965 h 0.422038 l 0.609347,-1.58145703 H 2.1733182 L 1.7370542,0.49146249 1.2984192,-0.72486053 H 0.91431718 Z" style="font-weight:bold;font-size:2.371px;font-family:'Proxima Nova';dominant-baseline:middle;text-anchor:middle;fill:#331a00"/>
    <path d="m 2.7034587,0.8565965 h 1.119112 V 0.56496349 h -0.78243 v -0.367505 h 0.765833 v -0.28926201 h -0.765833 v -0.34379501 h 0.78243 v -0.289262 h -1.119112 z" style="font-weight:bold;font-size:2.371px;font-family:'Proxima Nova';dominant-baseline:middle;text-anchor:middle;fill:#331a00"/>
  </g>
</svg>

<?xml version="1.0" encoding="UTF-8" standalone="no"?>
<svg xmlns="http://www.w3.org/2000/svg" xmlns:svg="http://www.w3.org/2000/svg" version="1.1" viewBox="-4.625000 -1.915222 9.250000 3.830444" height="3.830444mm" width="9.250000mm">
  <defs/>
  <g>
    <rect x="-4.5" y="-1.7902222222222222" width="9" height="3.5804444444444443" rx="0.5" ry="0.5" fill="#efedeb" stroke="#18191c" stroke-width="0.25"/>
    <g style="font-weight:bold;font-size:2.37067px;font-family:'Proxima Nova';dominant-baseline:middle;text-anchor:middle;fill:#18191c">
      <path d="m -3.020711,0.88544403 c 0.3603414,0 0.5594774,-0.19202401 0.6732694,-0.38878935 L -2.636663,0.35678535 c -0.066379,0.13038667 -0.2086186,0.22995467 -0.384048,0.22995467 -0.2749973,0 -0.483616,-0.22047201 -0.483616,-0.51917602 0,-0.29870401 0.2086187,-0.51917601 0.483616,-0.51917601 0.1754294,0 0.3176694,0.10193867 0.384048,0.22995467 l 0.2892214,-0.14224 c -0.1114214,-0.19676534 -0.312928,-0.38641868 -0.6732694,-0.38641868 -0.46228,0 -0.8297333,0.33189334 -0.8297333,0.81788002 0,0.48598669 0.3674533,0.81788003 0.8297333,0.81788003 z" style="font-weight:bold;font-size:2.37067px;font-family:'Proxima Nova';dominant-baseline:middle;text-anchor:middle;fill:#18191c"/>
      <path d="m -2.1447497,0.22639868 c 0,0.38878934 0.2252134,0.65904535 0.7088294,0.65904535 0.47887468,0 0.70408802,-0.26788534 0.70408802,-0.66141602 v -0.9482667 H -1.0732083 v 0.93878403 c 0,0.22047201 -0.120904,0.37219468 -0.362712,0.37219468 -0.2465493,0 -0.3674533,-0.15172267 -0.3674533,-0.37219468 v -0.93878403 h -0.3413761 z" style="font-weight:bold;font-size:2.37067px;font-family:'Proxima Nova';dominant-baseline:middle;text-anchor:middle;fill:#18191c"/>
      <path d="M 0.47605954,0.85699603 H 0.86247821 L 0.5068782,0.25484668 c 0.17068801,-0.0403013 0.34611735,-0.18965334 0.34611735,-0.46939202 0,-0.29396267 -0.20150668,-0.50969335 -0.53102935,-0.50969335 h -0.73964803 v 1.58123472 h 0.33663468 V 0.29040668 H 0.16550219 Z M 0.50924887,-0.216916 c 0,0.13275733 -0.10193867,0.21810134 -0.23706667,0.21810134 H -0.08104715 V -0.43501734 H 0.2721822 c 0.135128,0 0.23706667,0.085344 0.23706667,0.21810134 z" style="font-weight:bold;font-size:2.37067px;font-family:'Proxima Nova';dominant-baseline:middle;text-anchor:middle;fill:#18191c"/>
      <path d="M 1.5258203,0.85699603 H 1.9477989 L 2.5570603,-0.72423869 H 2.1730123 L 1.7368096,0.49191335 1.2982362,-0.72423869 H 0.91418823 Z" style="font-weight:bold;font-size:2.37067px;font-family:'Proxima Nova';dominant-baseline:middle;text-anchor:middle;fill:#18191c"/>
      <path d="M 2.7030786,0.85699603 H 3.8220333 V 0.56540402 h -0.78232 V 0.19795068 H 3.8054386 V -0.09127067 H 3.0397133 v -0.34374667 h 0.78232 V -0.72423869 H 2.7030786 Z" style="font-weight:bold;font-size:2.37067px;font-family:'Proxima Nova';dominant-baseline:middle;text-anchor:middle;fill:#18191c"/>
    </g>
  </g>
</svg>
